lib/preview/nrk-logo-preview-nrk-p1-title-below-on-light.svg

<svg width="35" height="31" viewBox="0 0 35 31" fill="none" xmlns="http://www.w3.org/2000/svg">
<path d="M0 12.998V0.999076H3.93719V12.998H0ZM9.29381 2.90877L11.5581 12.998H7.24917L4.54549 0.999076H6.96218C7.51635 0.991884 8.05406 1.18723 8.4745 1.54838C8.89562 1.89437 9.18495 2.37468 9.29381 2.90877ZM12.1495 12.998V0.999076H16.0867V12.998H12.1495ZM19.0605 5.56209C18.6362 5.56622 18.2188 5.45522 17.8525 5.24095C17.4912 5.03211 17.1911 4.73194 16.9823 4.37058C16.7678 4.00432 16.6568 3.58675 16.661 3.1623C16.6561 2.74045 16.7672 2.32537 16.9823 1.96241C17.1933 1.60498 17.4931 1.30808 17.8525 1.10051C18.2189 0.886488 18.6362 0.7755 19.0605 0.77937C19.4822 0.774828 19.8971 0.885915 20.2602 1.10051C20.616 1.3099 20.9127 1.60655 21.122 1.96241C21.3368 2.32547 21.4479 2.74048 21.4433 3.1623C21.4473 3.58671 21.3363 4.00421 21.122 4.37058C20.9149 4.73036 20.6179 5.03027 20.2602 5.24095C19.8971 5.45596 19.4819 5.56708 19.0599 5.56209H19.0605ZM22.0516 12.998V0.999076H25.9892V12.998H22.0516ZM30.9737 7.55622C30.9848 7.56786 31.0693 7.70587 31.2272 7.97026C31.3851 8.23465 31.5906 8.57267 31.8439 8.98427C32.0974 9.39569 32.3649 9.83224 32.6463 10.294C32.9278 10.7557 33.1926 11.1923 33.4408 11.6038C33.6881 12.0152 33.9697 12.4799 34.2857 12.998H29.9598C29.6893 12.5586 29.4441 12.1614 29.2245 11.8066C29.0048 11.4517 28.7713 11.0686 28.5238 10.6573C28.2758 10.2465 28.0306 9.84652 27.7882 9.45745C27.5458 9.06838 27.3375 8.7276 27.1633 8.43504C26.9883 8.1423 26.8671 7.94511 26.7997 7.84352C26.6325 7.59143 26.5336 7.30028 26.5127 6.99853C26.5294 6.70892 26.6226 6.42896 26.7828 6.1871C26.8504 6.07443 26.9743 5.87441 27.1545 5.58712C27.3348 5.29982 27.546 4.95904 27.7882 4.56471C28.0304 4.17038 28.2756 3.76759 28.5238 3.35636C28.772 2.94513 29.0056 2.55922 29.2245 2.19869C29.4445 1.83854 29.6897 1.43857 29.9598 0.998801H34.2857L30.9396 6.45748C30.8361 6.61955 30.7777 6.80633 30.7706 6.99853C30.7818 7.20031 30.8522 7.3943 30.9731 7.55622H30.9737Z" fill="#0A2343"/>
<path d="M8.14525 19.697C7.93756 19.3765 7.6709 19.0983 7.35944 18.8772C7.01227 18.6341 6.6267 18.4513 6.21882 18.3364C5.72366 18.1997 5.21149 18.1344 4.69787 18.1423H0V30.1406H1.7744V25.8313H4.83306C5.52342 25.8418 6.20469 25.6729 6.81024 25.3413C7.3904 25.0196 7.87226 24.5464 8.20438 23.9722C8.56032 23.3384 8.73843 22.6202 8.71982 21.8936C8.72133 21.5009 8.67595 21.1095 8.58463 20.7276C8.49688 20.3619 8.34834 20.0136 8.14525 19.697ZM6.5737 23.3387C6.34661 23.6951 6.01227 23.9703 5.61887 24.1246C5.1415 24.3052 4.63354 24.3913 4.1233 24.378H1.7744V19.6125H4.35991C4.85375 19.5939 5.34527 19.6892 5.79634 19.8911C6.15517 20.0645 6.44851 20.3489 6.63283 20.7022C6.8281 21.0985 6.9238 21.5365 6.91166 21.9781C6.93117 22.4546 6.8139 22.9267 6.5737 23.3387Z" fill="#1767CE"/>
<path d="M13.0967 18.1423C12.8261 18.2775 12.5697 18.4099 12.3275 18.5395C12.0853 18.669 11.8488 18.7901 11.618 18.9028C11.3867 19.0154 11.1528 19.1281 10.9164 19.2408C10.68 19.3534 10.4378 19.4548 10.1898 19.5449C9.94191 19.6355 9.6773 19.7255 9.39584 19.815L9.76729 21.2514C10.1053 21.1501 10.4123 21.0487 10.6883 20.9473C10.9587 20.8484 11.2238 20.7356 11.4826 20.6093C11.7362 20.4854 11.9897 20.3502 12.243 20.2037L12.2517 20.1987V30.1408H14.0089V18.1426L13.0967 18.1423Z" fill="#1767CE"/>
</svg>

<svg xmlns="http://www.w3.org/2000/svg" viewBox="0 0 35 31"><path fill="#0A2343" d="M0 12.998V.999h3.937v11.999H0Zm9.294-10.09 2.264 10.09H7.25L4.545.999h2.417a2.276 2.276 0 0 1 1.513.55c.42.345.71.826.819 1.36Zm2.855 10.09V.999h3.938v11.999h-3.938Zm6.912-7.436a2.382 2.382 0 0 1-2.4-2.4 2.301 2.301 0 0 1 .321-1.2 2.41 2.41 0 0 1 3.278-.861c.356.209.653.506.862.861.215.363.326.778.321 1.2a2.35 2.35 0 0 1-.321 1.209 2.4 2.4 0 0 1-.862.87 2.302 2.302 0 0 1-1.2.321Zm2.99 7.436V.999h3.938v11.999h-3.937Zm8.923-5.442c.01.012.095.15.253.414.158.265.364.603.617 1.014a313.388 313.388 0 0 1 1.597 2.62c.247.411.529.876.845 1.394H29.96c-.27-.44-.516-.837-.736-1.191-.22-.355-.453-.738-.7-1.15-.248-.41-.493-.81-.736-1.2-.242-.389-.45-.73-.625-1.022-.175-.293-.296-.49-.363-.591a1.747 1.747 0 0 1-.287-.845c.016-.29.11-.57.27-.812.067-.113.191-.313.371-.6s.392-.628.634-1.022c.242-.395.488-.797.736-1.209l.7-1.157.736-1.2h4.326L30.94 6.457a1.08 1.08 0 0 0-.17.542c.012.201.082.395.203.557Z"/><path fill="#1767CE" d="M8.145 19.697a3.018 3.018 0 0 0-.786-.82 3.771 3.771 0 0 0-1.14-.54 5.403 5.403 0 0 0-1.521-.195H0v11.999h1.774v-4.31h3.06a3.99 3.99 0 0 0 1.976-.49 3.662 3.662 0 0 0 1.394-1.369 4.034 4.034 0 0 0 .516-2.078 4.932 4.932 0 0 0-.135-1.166 3.361 3.361 0 0 0-.44-1.031Zm-1.571 3.642a1.997 1.997 0 0 1-.955.786c-.478.18-.985.266-1.496.253H1.774v-4.765H4.36a3.22 3.22 0 0 1 1.436.278c.36.174.653.458.837.811.195.396.29.834.279 1.276.02.477-.098.949-.338 1.36ZM13.097 18.142c-.27.136-.527.268-.77.398a21.7 21.7 0 0 1-.709.363c-.231.112-.465.225-.702.338a8.2 8.2 0 0 1-.726.304c-.248.09-.513.18-.794.27l.371 1.436c.338-.1.645-.202.921-.304.27-.099.536-.211.795-.338.253-.124.507-.259.76-.405l.009-.005v9.942h1.757V18.143h-.912Z"/></svg>
